X:1
T:The Titanic
M:6/8
L:1/8
K:C
 G/2G/2| G3 A2 G| G c3- c2| AA A/2A/2 c2 c| G3- G2 E| G2 G c2 d| e G2- G2 E/2F/2|\
 GGG e2 d| c3- c2 G| ccc EGG| _B A2- A2 F| DDD G2 F| E3- E2 D| G3/2 G/2 G ccd|\
 e G2- G2 E| GGG e2 d| c3- c2||

